src/icons/sail-boat.svg

<?xml version="1.0" encoding="UTF-8" standalone="no"?>
<svg
   xmlns:dc="http://purl.org/dc/elements/1.1/"
   xmlns:cc="http://creativecommons.org/ns#"
   xmlns:rdf="http://www.w3.org/1999/02/22-rdf-syntax-ns#"
   xmlns:svg="http://www.w3.org/2000/svg"
   xmlns="http://www.w3.org/2000/svg"
   xmlns:sodipodi="http://sodipodi.sourceforge.net/DTD/sodipodi-0.dtd"
   xmlns:inkscape="http://www.inkscape.org/namespaces/inkscape"
   viewBox="0 0 16 16"
   fill="currentColor"
   height="16px"
   width="16px"
   version="1.1"
   id="svg8"
   sodipodi:docname="sail-boat.svg"
   inkscape:version="1.0.1 (3bc2e813f5, 2020-09-07)">
  <metadata
     id="metadata14">
    <rdf:RDF>
      <cc:Work
         rdf:about="">
        <dc:format>image/svg+xml</dc:format>
        <dc:type
           rdf:resource="http://purl.org/dc/dcmitype/StillImage" />
        <dc:title></dc:title>
      </cc:Work>
    </rdf:RDF>
  </metadata>
  <defs
     id="defs12" />
  <sodipodi:namedview
     pagecolor="#ffffff"
     bordercolor="#666666"
     borderopacity="1"
     objecttolerance="10"
     gridtolerance="10"
     guidetolerance="10"
     inkscape:pageopacity="0"
     inkscape:pageshadow="2"
     inkscape:window-width="2560"
     inkscape:window-height="1373"
     id="namedview10"
     showgrid="true"
     showborder="true"
     inkscape:zoom="45.254834"
     inkscape:cx="15.048753"
     inkscape:cy="8.9547448"
     inkscape:window-x="0"
     inkscape:window-y="30"
     inkscape:window-maximized="1"
     inkscape:current-layer="svg8">
    <inkscape:grid
       type="xygrid"
       id="grid841"
       empspacing="4" />
  </sodipodi:namedview>
  <path
     id="path2"
     d="M 8.5117188 0 A 0.50005 0.50005 0 0 0 8.1464844 0.14648438 L 0.14648438 8.1464844 A 0.50005 0.50005 0 0 0 0.5 9 L 8.5 9 A 0.50005 0.50005 0 0 0 9 8.5 L 9 0.5 A 0.50005 0.50005 0 0 0 8.5117188 0 z M 10.470703 0 A 0.50005 0.50005 0 0 0 10 0.5 L 10 8.5 A 0.50005 0.50005 0 0 0 10.5 9 L 15.5 9 A 0.50005 0.50005 0 0 0 15.923828 8.234375 L 10.923828 0.234375 A 0.50005 0.50005 0 0 0 10.470703 0 z M 8 1.7070312 L 8 8 L 1.7070312 8 L 8 1.7070312 z M 11 2.2441406 L 14.597656 8 L 11 8 L 11 2.2441406 z M 0.5 10 C 0.1410956 10.000328 -0.10058356 10.367475 0.041015625 10.697266 L 3.2109375 14.697266 C 3.2897361 14.880792 3.4701949 14.999818 3.6699219 15 L 8 15 L 12.330078 15 C 12.529805 14.999817 12.710264 14.880792 12.789062 14.697266 L 15.958984 10.697266 C 16.100583 10.367475 15.858904 10.000328 15.5 10 L 8 10 L 0.5 10 z M 1.2578125 11 L 8 11 L 14.742188 11 L 12 14 L 8 14 L 4 14 L 1.2578125 11 z " />
  <path
     d="M 1.2578125,11 H 14.742 L 12,14 H 4 Z"
     opacity="0.2"
     id="path4"
     sodipodi:nodetypes="ccccc" />
</svg>

<svg xmlns="http://www.w3.org/2000/svg" viewBox="0 0 16 16" fill="currentColor" height="16px" width="16px">
    <path d="M8.512 0a.5.5 0 00-.366.146l-8 8A.5.5 0 00.5 9h8a.5.5 0 00.5-.5v-8a.5.5 0 00-.488-.5zm1.959 0A.5.5 0 0010 .5v8a.5.5 0 00.5.5h5a.5.5 0 00.424-.766l-5-8A.5.5 0 0010.47 0zM8 1.707V8H1.707L8 1.707zm3 .537L14.598 8H11V2.244zM.5 10a.5.5 0 00-.459.697l3.17 4A.5.5 0 003.67 15h8.66a.5.5 0 00.46-.303l3.169-4A.5.5 0 0015.5 10H.5zm.758 1h13.484L12 14H4l-2.742-3z"/>
    <path d="M1.258 11h13.484L12 14H4z" opacity=".2"/>
</svg>
